resources/svg/major-thumbs-up.svg

<svg xmlns="http://www.w3.org/2000/svg" viewBox="0 0 20 20" fill="currentColor"><path d="M18.992 7a.904.904 0 0 0-.896-1.023c-.387 0-2.01.007-3.488.013l-2.608.01c.059 0 1.234-2.103 1.234-3.29a2.711 2.711 0 0 0-2.713-2.71l-2.711 6h-1.81v11h2.382c.28 0 .557.065.808.19l.754.377c1.056.433 2.456.433 4.282.433h1.915c.68 0 1.255-.503 1.345-1.176l1.506-9.824zm-16.492-1a1.5 1.5 0 0 0-1.5 1.5v8a1.5 1.5 0 0 0 1.5 1.5h1.5v-11h-1.5z"/></svg>

<svg xmlns="http://www.w3.org/2000/svg" viewBox="0 0 20 20" fill="currentColor"><path d="M18.992 7a.904.904 0 0 0-.896-1.023c-.387 0-2.01.007-3.488.013L12 6c.059 0 1.234-2.103 1.234-3.29A2.711 2.711 0 0 0 10.521 0L7.81 6H6v11h2.382c.28 0 .557.065.808.19l.754.377C11 18 12.4 18 14.226 18h1.915c.68 0 1.255-.503 1.345-1.176L18.992 7zM2.5 6A1.5 1.5 0 0 0 1 7.5v8A1.5 1.5 0 0 0 2.5 17H4V6H2.5z"/></svg>
